X:3922
T:Maid of Mount Kisco, The
T:Maid of Mount Cisco, The
T:Maid of Moncisco, The
O:england
C:Paddy Killoran (?)
R:reel
D:Tommy Keane: The Piper's Apron
D:Michael McGoldrick: Morning Rory
M:C|
K:Ador
EA~A2 BA~A2|EA~A2 BGAG|EG~G2 AG~G2|EG~G2 EGDG|
EA~A2 BAAG|EA~A2 BA (3Bcd|efge afge|1 dBGB ~A3G:|2 dBGB A2dB||
|:~A3B dBAB|G2BG DGBG|~A3B d2 (3Bcd|1 efge dBGB:|2 edge d2 (3Bcd||
|:ea~a2 bgag|egdB GABd|ea~a2 bgaf|gede g2eg|
~a3f ~g3e|dedB GABd|eA~A2 efge|1 dBGB A2 (3Bcd:|2 dBGB ~A3G||
"Variations:"
|:EA~A2 BGAG|EA~A2 BGAG|EG~G2 BG~G2|EGDG EGDG|
EA~A2 BGAG|EA~A2 BABd|~e3f ~g3e|dBGB BAAG:|
|:AGAB dBAF|G2BG DGBG|~A3B dGBd|1 egfa gedB:|2 egge dGBd||
|:ea~a2 bgaf|gedB GABd|ea~a2 bgag|edef g2eg|
~a3b ~g3e|dedB GABd|eA~A2 efge|1 dBGA BA~A2:|2 dBGA BAAG||


